X: 40146
T: Tight Squeeze, The
R: polka
M: 2/4
K: Dmajor
|:de|fD FA|Bd d>B|AF D>F|GE E>e|
fD FA|Bd d>B|AF GE|D2:|
|:de|fA fa|ge e>g|fD FA|GE E>e|
fA fa|ge e>g|fd ec|d2:|

